!!!!SEGMENT: pl-gd--ee-1638--002-009_marenzio-luca--motettorum-pro-festis-totius-anni-in-resurrectione-domini-et-respicientes.krn
!!!cenid: 15xx:1012
!!!COM: Marenzio, Luca
!!!COM-rismID: pe30003955
!!!CDT: ~1553-1599/08/22
!!!CNT: Italian
!!!GTL: Motettorum pro festis totius anni
!!!OTL: In Resurrectione Domini/Et respicientes
!!!OMV: 009
!!!PDT: 1588
!!!AGN:
!!!YEC: Copyright 2022 Narodowy Instytut Fryderyka Chopina (https://polishscores.org)
!!!YEM: License CC-BY-4.0 (https://creativecommons.org/licenses/by/4.0)
!!!SMS-siglum: PL-GD
!!!SMS-shelfmark: Ee 1638
!!!SMS-shelfwork: 002-009 G
!!!SMS-variant:
!!!SMS-altvar:
!!!NIFC-rismSourceID: 1001202747
!!!NIFC-rismChildID: 990039238
!!!NIFC-islandoraID: pl-gd:57883
!!!URL-pdf-islandora: https://repozytorium.nifc.pl/islandora/object/pl-gd%3A57883/datastream/PDF/view
!!!URL-scan: https://polish.musicsources.pl/pl/lokalizacje/galeria/klocki-introligatorskie/655 @EN{Scan on Polish Music Sources Website} @PL{Skany w portalu Dziedzictwo Muzyki Polskiej w otwartym dostępie}
!!!IIIF: https://repozytorium.nifc.pl/islandora/object/pl-gd%3A57883/datastream/IIIF/view
!!!ONB-nifc: UWAGA: Cantus: s. 620 (prawa), Altus: s. 468 (prawa), Tenor: s. 316 (prawa), Bassus: s. 164 (prawa)
!!!AIN: 1 alto 1 bass 1 soprn 1 tenor
!!!key: G:mix
**kern	**text	**kern	**text	**kern	**text	**kern	**text
*part4	*part4	*part3	*part3	*part2	*part2	*part1	*part1
*staff4	*staff4	*staff3	*staff3	*staff2	*staff2	*staff1	*staff1
*I"BASSVS	*	*I"TENOR	*	*I"ALTVS	*	*I"CANTVS	*
*mI"Basso	*	*mI"Tenore	*	*mI"Alto	*	*mI"Soprano	*
*I'B	*	*I'T	*	*I'A	*	*I'S	*
*Ibass	*	*Itenor	*	*Ialto	*	*Isoprn	*
*ICvox	*	*ICvox	*	*ICvox	*	*ICvox	*
*clefF4	*	*clefC4	*	*clefC3	*	*clefC1	*
*	*	*mclefGv2	*	*mclefGv2	*	*mclefG2	*
*k[]	*	*k[]	*	*k[]	*	*k[]	*
*G:mix	*	*G:mix	*	*G:mix	*	*G:mix	*
*M2/1	*	*M2/1	*	*M2/1	*	*M2/1	*
*met(C|)	*	*met(C|)	*	*met(C|)	*	*met(C)	*
*mmet(c|)	*	*mmet(c|)	*	*mmet(c|)	*	*mmet(c|)	*
=1-	=1-	=1-	=1-	=1-	=1-	=1-	=1-
*xywh-#164:4564,555,3428,800	*	*xywh-#316:4508,529,3407,775	*	*xywh-#468:4499,566,3379,779	*	*xywh-#620:4583,557,3451,723	*
!LO:TX:a:i:mod= :t=In Reſurrectione Domini.	!	!LO:TX:a:i:mod= :t=In Reſurrectione Domini.	!LO:SIC:s=Et	!LO:TX:a:i:mod= :t=In Reſurrectione Domini.	!	!LO:TX:a:i:mod= :t=In Reſurrectione Domini.	!
1r	.	1.G	ET	00r	.	00r	.
!	!LO:SIC:s=Et	!	!	!	!	!	!
1.G	ET	.	.	.	.	.	.
.	.	2A/	reſ-	.	.	.	.
=2-	=2-	=2-	=2-	=2-	=2-	=2-	=2-
.	.	2B\	-pi-	.	.	.	.
2C/	reſ-	2G/	-ci-	.	.	.	.
2E\	-pi-	1c	-en-	.	.	.	.
2F\	-ci-	.	.	.	.	.	.
=3-	=3-	=3-	=3-	=3-	=3-	=3-	=3-
!	!	!	!	!	!	!	!LO:SIC:s=Et
1G	-en-	1B	-tes	1r	.	1.g	ET
!	!	!	!	!	!LO:SIC:s=Et	!	!
1C	-tes	1e	vi-	1.g	ET	.	.
.	.	.	.	.	.	2a\	reſ-
=4-	=4-	=4-	=4-	=4-	=4-	=4-	=4-
0r	.	2.e\	-de-	.	.	2b\	-pi-
.	.	.	.	2c/	reſ-	2g/	-ci-
.	.	4d\	.	.	.	.	.
.	.	4c\	.	2e\	-pi-	1cc	-en-
.	.	4B\	.	.	.	.	.
.	.	2A/	.	2f\	-ci-	.	.
=5-	=5-	=5-	=5-	=5-	=5-	=5-	=5-
2r	.	1G	-runt	2.g\	-en-	2b\	-tes
*	*	*	*	*	*	*	*ij
!	!	!	!	!	!	!	!LO:SIC:s=et
2E\	vi-	.	.	.	.	1g	Et
.	.	.	.	4f\	.	.	.
2.E\	-de-	2r	.	1.e	.	.	.
.	.	1G/	Et	.	.	2c/	reſ-
4D/	.	.	.	.	.	.	.
=6-	=6-	=6-	=6-	=6-	=6-	=6-	=6-
4C/	.	.	.	.	.	2e/	-pi-
4BB/	.	.	.	.	.	.	.
2AA/	.	2A/	re-	2c/	-tes	2f/	-ci-
*	*	*custos:B	*	*	*	*	*
*	*	*xywh-#316:4523,1187,3476,664	*	*	*	*	*
!	!	!LO:LB:g=original	!	!	!	!	!
1GG	-runt	2B\	ſpi-	2r	.	1g	-en-
*	*	*	*	*	*ij	*	*
!	!	!	!	!	!LO:SIC:s=et	!	!
.	.	2G/	-ci-	1g\	Et	.	.
=7-	=7-	=7-	=7-	=7-	=7-	=7-	=7-
2r	.	2.c\	-en-	.	.	1e	-tes
*	*	*	*	*	*	*	*Xij
!	!LO:SIC:s=et	!	!	!	!	!	!
1C	Et	.	.	2c/	reſ-	.	.
.	.	4B\	.	.	.	.	.
.	.	1A	.	2e\	-pi-	2r	.
2D/	reſ-	.	.	2f\	-ci-	2a\	vi-
=8-	=8-	=8-	=8-	=8-	=8-	=8-	=8-
2E\	-pi-	1G	-tes	1g	-en-	2.ee\	-de-
*custos:C	*	*	*	*	*	*	*
*xywh-#164:4550,1213,3477,687	*	*	*	*	*	*	*
!LO:LB:g=original	!	!	!	!	!	!	!
2C/	-ci-	.	.	.	.	.	.
.	.	.	.	.	.	4dd\	.
*	*	*	*	*custos:c	*	*custos:cc	*
*	*	*	*	*xywh-#468:4489,1253,3389,603	*	*xywh-#620:4600,1180,3364,641	*
!	!	!	!	!LO:LB:g=original	!	!LO:LB:g=original	!
1F	-en-	2r	.	2.c/	.	4cc\	.
.	.	.	.	.	.	4b\	.
.	.	2A/	vi-	.	.	2a\	.
.	.	.	.	8B/	.	.	.
.	.	.	.	8A/	.	.	.
=9-	=9-	=9-	=9-	=9-	=9-	=9-	=9-
1E	-tes	2.e\	-de-	2B/	-tes	1g	-runt
*	*	*	*	*	*Xij	*	*
.	.	.	.	2e\	vi-	.	.
.	.	4d\	.	.	.	.	.
1A	vi-	4c\	.	2.e\	-de-	2r	.
.	.	4B\	.	.	.	.	.
.	.	2A/	.	.	.	2.c/	vi-
.	.	.	.	4d\	.	.	.
=10-	=10-	=10-	=10-	=10-	=10-	=10-	=10-
2.A\	-de-	2e\	-runt	4c/	.	.	.
.	.	.	.	4B/	.	4d/	.
.	.	1c	re-	2.A/	.	2e/	.
4G\	.	.	.	.	.	.	.
4F\	.	.	.	.	.	1f	-de-
4E\	.	.	.	4G/	.	.	.
!	!	!	!LO:SIC:s=-vo-	!	!	!	!
2D/	.	2B\	-uo-	2F/	.	.	.
=11-	=11-	=11-	=11-	=11-	=11-	=11-	=11-
2C/	-runt	2.c\	-lu-	2G/	-runt	2.e/	-runt
1c	re-	.	.	1A	re-	.	.
.	.	4B\	-tum	.	.	4d/	.
.	.	2A/	la-	.	.	4e/	.
.	.	.	.	.	.	4f/	.
!	!LO:SIC:s=-vo-	!	!	!	!LO:SIC:s=-vo-	!	!
2B\	-uo-	2G/	-pi-	2d\	-uo-	2g/	.
=12-	=12-	=12-	=12-	=12-	=12-	=12-	=12-
2.A\	-lu-	1c	-dem	2.f\	-lu-	0r	.
4G\	-tum	.	.	4e\	-tum	.	.
2F\	la-	1r	.	2d\	la-	.	.
2E\	-pi-	.	.	2c#X/	-pi-	.	.
*	*	*custos:G	*	*	*	*	*
!	!	!LO:LB:g=original	!	!	!	!	!
=13-	=13-	=13-	=13-	=13-	=13-	=13-	=13-
*	*	*xywh-#316:4530,1720,3372,699	*	*	*	*	*
1D	-dem	0r	.	1d	-dem	2r	.
!	!	!	!	!	!	!	!LO:SIC:s=et
.	.	.	.	.	.	1dd	Et
*	*	*	*	*custos:B	*	*	*
*	*	*	*	*xywh-#468:4508,1783,3364,647	*	*	*
!	!LO:SIC:s=et	!	!	!LO:LB:g=original	!LO:SIC:s=et	!	!
1.GG	eT	.	.	2B/	Et	.	.
.	.	.	.	2cny/	reſ-	2g/	reſ-
=14-	=14-	=14-	=14-	=14-	=14-	=14-	=14-
.	.	1r	.	1.d	-pi-	2b\	-pi-
2AA/	reſ-	.	.	.	.	2cc\	-ci-
!	!	!	!LO:SIC:s=et	!	!	!	!
2BB/	-pi-	1.G	Et	.	.	1dd	-en-
2GG/	-ci-	.	.	2B/	-ci-	.	.
=15-	=15-	=15-	=15-	=15-	=15-	=15-	=15-
1C	-en-	.	.	1e	-en-	1g	-tes
.	.	2A/	reſ-	.	.	.	.
*	*	*	*	*	*	*custos:g	*
*	*	*	*	*	*	*xywh-#620:4583,1775,3440,612	*
!	!	!	!	!	!	!LO:LB:g=original	!
2BB/	-tes	1B	-pi-	2d\	-tes	2r	.
*	*	*	*	*	*	*	*ij
!	!LO:SIC:s=vi-	!	!	!	!	!	!LO:SIC:s=et
2E\	ui-	.	.	2G/	vi-	1g\	Et
*custos:E	*	*	*	*	*	*	*
!LO:LB:g=original	!	!	!	!	!	!	!
=16-	=16-	=16-	=16-	=16-	=16-	=16-	=16-
*xywh-#164:4592,1773,3406,637	*	*	*	*	*	*	*
2.E\	-de-	1G	-ci-	2.g\	-de-	.	.
.	.	.	.	.	.	2c/	reſ-
4D/	.	.	.	4f\	.	.	.
4C/	.	1c	-en-	4e\	.	2e/	-pi-
4BB/	.	.	.	4d\	.	.	.
2AA/	.	.	.	2c/	.	2f/	-ci-
=17-	=17-	=17-	=17-	=17-	=17-	=17-	=17-
1GG	-runt	1B	-tes	1d	-runt	1g	-en-
1r	.	2e\	vi-	2.c/	re-	1g	-tes
*	*	*	*	*	*	*	*Xij
.	.	2.e\	-de-	.	.	.	.
.	.	.	.	4d\	.	.	.
=18-	=18-	=18-	=18-	=18-	=18-	=18-	=18-
!	!	!	!	!	!	!	!LO:SIC:s=vi-
0r	.	.	.	4e\	.	1g	ui-
.	.	4d\	.	4f\	.	.	.
.	.	4c\	.	1g	.	.	.
.	.	4B\	.	.	.	.	.
.	.	1A	.	.	.	1a	-de-
!	!	!	!	!	!LO:SIC:s=-vo-	!	!
.	.	.	.	2f#X\	-uo-	.	.
=19-	=19-	=19-	=19-	=19-	=19-	=19-	=19-
2r	.	2G/	runt	2.g\	-lu-	1b	-runt
1G	re-	1B	re-	.	.	.	.
.	.	.	.	4fny\	-tum	.	.
*	*	*	*	*custos:e	*	*	*
*	*	*	*	*xywh-#468:4542,2342,3355,632	*	*	*
!	!	!	!	!LO:LB:g=original	!	!	!
.	.	.	.	2e\	la-	1r	.
!	!LO:SIC:s=-vo-	!	!LO:SIC:s=-vo-	!	!	!	!
2F\	-uo-	2A/	-uo-	2d\	-pi-	.	.
=20-	=20-	=20-	=20-	=20-	=20-	=20-	=20-
2.E\	-lu-	2.c\	-lu-	1e	-dem	0r	.
4D/	-tum	4B\	-tum	.	.	.	.
2C/	la-	2A/	la-	1r	.	.	.
2BB/	-pi-	2G#X/	-pi-	.	.	.	.
*	*	*custos:A	*	*	*	*	*
!	!	!LO:LB:g=original	!	!	!	!	!
=21-	=21-	=21-	=21-	=21-	=21-	=21-	=21-
*	*	*xywh-#316:4550,2330,3441,623	*	*	*	*	*
1AA	-dem	1A	-dem	2r	.	2r	.
.	.	.	.	1e	re-	1cc	re-
1r	.	1r	.	.	.	.	.
!	!	!	!	!	!LO:SIC:s=-vo-	!	!LO:SIC:s=-vo-
.	.	.	.	2d\	-uo-	2b-X\	-uo-
=22-	=22-	=22-	=22-	=22-	=22-	=22-	=22-
0r	.	0r	.	2.f\	-lu-	2.a\	-lu-
.	.	.	.	4e\	-tum	4g/	-tum
.	.	.	.	2d\	la-	2f/	la-
.	.	.	.	2c#X/	-pi-	2e/	-pi-
=23-	=23-	=23-	=23-	=23-	=23-	=23-	=23-
1r	.	1r	.	1d	-dem	1d	-dem
!	!	!	!	!	!	!LO:MO:mod=[1f#	!
1.D	e-	1.d	e-	1.A	e-	1.f#X	e-
.	.	.	.	.	.	.	.
=24-	=24-	=24-	=24-	=24-	=24-	=24-	=24-
!	!	!	!	!	!	!LO:MO:null:mod=2f#]	!
.	.	.	.	.	.	.	.
!	!	!	!	!	!	!LO:SIC:s=2f#i	!
2D/	-rat	2d\	-rat	2A/	-rat	2f#y/	-rat
*	*	*	*	*	*	*custos:g	*
*	*	*	*	*	*	*xywh-#620:4600,2282,3422,658	*
!	!	!	!	!	!	!LO:LB:g=original	!
1G	quip-	1d	quip-	1B	quip-	1g	quip-
=25-	=25-	=25-	=25-	=25-	=25-	=25-	=25-
1C	-pe	1c	-pe	1e	-pe	1g	-pe
1.F	mag-	1c	mag-	1f	mag-	1.a	mag-
=26-	=26-	=26-	=26-	=26-	=26-	=26-	=26-
.	.	2A/	-nus	2cny/	-nus	.	.
2C/	-nus	2.c\	val-	2.e\	val-	2g/	-nus
*custos:E	*	*	*	*	*	*	*
*xywh-#164:4578,2340,3527,630	*	*	*	*	*	*	*
!LO:LB:g=original	!	!	!	!	!	!	!
1E	val-	.	.	.	.	1.g	val-
.	.	8B\	.	8d\	.	.	.
.	.	8A\	.	8c\	.	.	.
*	*	*	*	*custos:B	*	*	*
*	*	*	*	*xywh-#468:4478,2887,3443,627	*	*	*
!	!	!	!	!LO:LB:g=original	!	!	!
.	.	4Gny/	.	4B/	.	.	.
.	.	4A/	.	4c/	.	.	.
=27-	=27-	=27-	=27-	=27-	=27-	=27-	=27-
0D	-de	2B\	.	1d	.	.	.
.	.	4A/	.	.	.	4f#X/	-de
.	.	4G/	.	.	.	4e/	.
!	!	!	!	!	!	!LO:SIC:s=1f#	!
.	.	1A	.	1d	-de	1f#X	.
=28-	=28-	=28-	=28-	=28-	=28-	=28-	=28-
2r	.	1G	-de	0d	Al-	2r	.
2.G\	Al-	.	.	.	.	2.bny\	Al-
.	.	1r	.	.	.	.	.
4F#X\	-le-	.	.	.	.	4a\	-le-
2G\	-lu-	.	.	.	.	2b\	-lu-
=29-	=29-	=29-	=29-	=29-	=29-	=29-	=29-
2E\	-ia	00r	.	0c	-le-	2g/	-ia
*	*ij	*	*	*	*	*	*ij
!	!LO:SIC:s=al-	!	!	!	!	!	!LO:SIC:s=al-
2.Fny\	Al-	.	.	.	.	2.a\	Al-
4E\	-le-	.	.	.	.	4g/	-le-
2F\	-lu-	.	.	.	.	2a\	-lu-
=30-	=30-	=30-	=30-	=30-	=30-	=30-	=30-
2D/	-ia	.	.	0B	-lu-	2f#X/	-ia
!	!LO:SIC:s=al-	!	!	!	!	!	!LO:SIC:s=al-
2.E\	Al-	.	.	.	.	2.g/	Al-
!	!	!	!	!	!	!LO:SIC:s=4f#	!
4D/	-le-	.	.	.	.	4f#X/	-le-
2E\	-lu-	.	.	.	.	2g/	-lu-
=31-	=31-	=31-	=31-	=31-	=31-	=31-	=31-
2C#X/	-ia	0r	.	0Any	-ia	2e/	-ia
*	*	*	*	*	*	*custos:f	*
*	*	*	*	*	*	*xywh-#620:4612,2865,3381,594	*Xij
!	!LO:SIC:s=al-	!	!	!	!	!LO:SIC:v:s=2.f#i	!LO:SIC:s=al-
!	!	!	!	!	!	!LO:LB:g=original	!
2.D/	Al-	.	.	.	.	2.fny/	Al-
!LO:SIC:s=4C#	!	!	!	!	!	!	!
4C#X/	-le-	.	.	.	.	4e/	-le-
2D/	-lu-	.	.	.	.	2f#X/	-lu-
=32-	=32-	=32-	=32-	=32-	=32-	=32-	=32-
!	!	!	!	!	!LO:SIC:s=al-	!	!
1GG	-ia	2.B\	Al-	2.d\	Al-	2g/	-ia
*	*	*	*	*	*	*	*ij
!	!	!	!	!	!	!	!LO:SIC:s=al-
.	.	.	.	.	.	2.dd\	Al-
.	.	4A/	-le-	4c/	-le-	.	.
*	*	*custos:B	*	*	*	*	*
*	*	*xywh-#316:4529,2849,3414,644	*	*	*	*	*
!	!LO:SIC:s=al-	!LO:LB:g=original	!	!	!	!	!
1G	Al-	2B\	-lu-	2d\	-lu-	.	.
.	.	.	.	.	.	4b\	-le-
.	.	2G/	-ia	2B/	-ia	2dd\	-lu-
=33-	=33-	=33-	=33-	=33-	=33-	=33-	=33-
*	*	*	*ij	*	*ij	*	*
!	!	!	!LO:SIC:s=al-	!	!LO:SIC:s=al-	!	!
0F	-le-	2.A/	Al-	2.c/	Al-	2a\	-ia
!	!	!	!	!	!	!	!LO:SIC:s=al-
.	.	.	.	.	.	2.cc\	Al-
.	.	4G/	-le-	4B/	-le-	.	.
.	.	2A/	-lu-	2c/	-lu-	.	.
.	.	.	.	.	.	4a\	-le-
.	.	2F/	-ia	2A/	-ia	2cc\	-lu-
*	*	*	*Xij	*	*	*	*
=34-	=34-	=34-	=34-	=34-	=34-	=34-	=34-
!	!	!	!LO:SIC:s=al-	!	!LO:SIC:s=al-	!	!
0E	-lu-	2.G/	Al-	2.B/	Al-	2g/	-ia
!	!	!	!	!	!	!	!LO:SIC:s=al-
.	.	.	.	.	.	2.b\	Al-
.	.	4F/	-le-	4A/	-le-	.	.
.	.	2G/	-lu-	2B/	-lu-	.	.
.	.	.	.	.	.	4b\	-le-
.	.	2E/	-ia	2G/	-ia	2cc#X\	-lu-
*custos:D	*	*	*ij	*custos:A	*Xij	*	*
!LO:LB:g=original	!	!	!	!LO:LB:g=original	!	!	!
=35-	=35-	=35-	=35-	=35-	=35-	=35-	=35-
*xywh-#164:4592,2863,3456,672	*	*	*	*xywh-#468:4493,3456,3369,583	*	*	*
!	!	!	!LO:SIC:s=al-	!	!LO:SIC:s=al-	!	!
0D	-ia	2.F/	Al-	2.A/	Al-	2dd\	-ia
*	*Xij	*	*	*	*	*	*
!	!	!	!	!	!	!	!LO:SIC:s=al-
.	.	.	.	.	.	2.a\	Al-
.	.	4E/	-le-	4G/	-le-	.	.
.	.	2F/	-lu-	2A/	-lu-	.	.
.	.	.	.	.	.	4g/	-le-
.	.	4D/	-ia	2d\	-ia	2a\	-lu-
!	!	!	!LO:SIC:s=al-	!	!	!	!
.	.	2d\	Al-	.	.	.	.
=36-	=36-	=36-	=36-	=36-	=36-	=36-	=36-
!	!LO:SIC:s=al-	!	!	!	!	!	!
2.G\	Al-	.	.	1r	.	4b\	-ia
!	!	!	!	!	!	!	!LO:SIC:s=al-
.	.	4e\	-le-	.	.	2b\	Al-
.	.	2d\	-lu-	.	.	.	.
4F\	-le-	.	.	.	.	4a\	-le-
*	*	*	*	*	*	*custos:b	*
*	*	*	*	*	*	*xywh-#620:4629,3372,3381,629	*
!	!	!	!	!	!LO:SIC:s=al-	!LO:LB:g=original	!
2G\	-lu-	2B\	-ia	1g	Al-	2b\	-lu-
*	*	*	*Xij	*	*	*	*
!	!	!	!LO:SIC:s=al-	!	!	!	!
2E\	-ia	2.c\	Al-	.	.	2g/	-ia
*	*ij	*	*	*	*	*	*Xij
=37-	=37-	=37-	=37-	=37-	=37-	=37-	=37-
!	!LO:SIC:s=al-	!	!	!	!	!	!LO:SIC:s=al-
2.F\	Al-	.	.	0f	-le-	2.a\	Al-
.	.	4d\	-le-	.	.	.	.
.	.	2c\	-lu-	.	.	.	.
4E\	-le-	.	.	.	.	4g/	-le-
*	*	*custos:A	*	*	*	*	*
*	*	*xywh-#316:4557,3389,3351,644	*	*	*	*	*
!	!	!LO:LB:g=original	!	!	!	!	!
2F\	-lu-	2A/	-ia	.	.	2a\	-lu-
!	!	!	!LO:SIC:s=al-	!	!	!	!
2D/	-ia	2.B\	Al-	.	.	2dd\	-ia
=38-	=38-	=38-	=38-	=38-	=38-	=38-	=38-
*	*	*	*	*	*	*	*ij
!	!LO:SIC:s=al-	!	!	!	!	!	!LO:SIC:s=al-
2.E\	Al-	.	.	0e	-lu-	2.g/	Al-
.	.	4c\	-le-	.	.	.	.
.	.	2B\	-lu-	.	.	.	.
4D/	-le-	.	.	.	.	4f#X/	-le-
2E\	-lu-	2G/	-ia	.	.	2g/	-lu-
*	*	*	*ij	*	*	*	*
!	!	!	!LO:SIC:s=al-	!	!	!	!
2Cny/	-ia	1A\	Al-	.	.	2e/	-ia
*	*	*	*	*	*	*	*Xij
=39-	=39-	=39-	=39-	=39-	=39-	=39-	=39-
!	!LO:SIC:s=al-	!	!	!	!	!	!LO:SIC:s=al-
2.D/	Al-	.	.	[0dl	-ia.	2f#X/	Al-
.	.	2B\	-le-	.	.	4f#/	-le-
4GG/	-le-	.	.	.	.	2g/	-lu-
1D	-lu-	1A	-lu-	.	.	.	.
!	!	!	!	!	!	!LO:SIC:s=8f#	!
.	.	.	.	.	.	8f#X/	.
.	.	.	.	.	.	8e/	.
!	!	!	!	!	!	!LO:SIC:s=2f#	!
.	.	.	.	.	.	2f#X/	.
=40-	=40-	=40-	=40-	=40-	=40-	=40-	=40-
!	!LO:SIC:s=-ia.	!	!LO:SIC:s=-ia.	!	!	!	!
0GGl	-ia	0Gl	-ia	0d]	.	0gl	-ia.
==	==	==	==	==	==	==	==
*-	*-	*-	*-	*-	*-	*-	*-
!!!system-decoration: [*]
!!LO:MO:ori
!!!RDF**kern: l = terminal long
!!LO:MO:mod
!! !!!RDF**kern: i = editorial accidental
!!LO:MO:end
!!!filter-modern: shed -e "s/^custos:/Xcustos:/I" | shed -e "s/TX(.*):t=P:/tx$1:t=P:/LG" | sic -sq | modori -m | autostem -r | tie -s | humtr -p | shed -e "s/-//B" | autobeam
!!!ENC: Filip Voros
!!!END: 2022-06-30
!!!EED: Natalia Wrzos
!!!EEV: 2022-07-09
!!!EED2: Andrzej Kubiczek
!!!EEV2: 2023-10-14
!!!ENC-iiif: Lidia Bialucha
!!!END-iiif: 2022-09-04
!!!ENC-modern: Andrzej Kubiczek
!!!END-modern: 2023-10-14
